assets/img/braze_icons/image-left.svg

<svg fill="none" height="24" viewBox="0 0 24 24" width="24" xmlns="http://www.w3.org/2000/svg"><g fill="#801ed7"><path clip-rule="evenodd" d="m5.5 8.5c0-1.65685 1.34315-3 3-3 1.6569 0 3 1.34315 3 3 0 1.6569-1.3431 3-3 3-1.65685 0-3-1.3431-3-3z" fill-rule="evenodd"/><path clip-rule="evenodd" d="m12.5 2h-4.7413c-.80496-.00001-1.46933-.00002-2.01052.04419-.5621.04593-1.07881.14449-1.56414.39179-.75265.38349-1.36457.99541-1.74806 1.74806-.2473.48533-.34586 1.00204-.39179 1.56414-.04421.54119-.0442 1.20554-.04419 2.01051v8.48261c-.00001.805-.00002 1.4693.04419 2.0105.04593.5621.14449 1.0788.39179 1.5642.38349.7526.99541 1.3645 1.74806 1.748.48533.2473 1.00204.3459 1.56414.3918.17538.0143.3637.024.56556.0306.20931.0139.45966.0138.7177.0138 3.32286 0 6.64566-.0002 9.96856-.0002h.1376c.7954.0005 1.386.0008 1.8977-.1363 1.3803-.3699 2.4585-1.4481 2.8284-2.8284.1753-.6543.1365-1.3548.1363-2.0258.0018-.1893.0001-.3787.0001-.568.0005-.4689.001-.8821-.1078-1.2768-.0954-.3465-.2524-.673-.4633-.964-.2403-.3315-.5632-.5893-.9297-.8818l-2.831-2.2648c-.1699-.1359-.3379-.2703-.4904-.3744-.1696-.1158-.3784-.2361-.6397-.3031-.3673-.0942-.7539-.082-1.1145.0352-.2566.0833-.4574.2165-.6194.3427-.1457.1136-.3048.2583-.4658.4047l-8.50804 7.7346c-.21348.194-.41985.3816-.57156.5457-.06083.0659-.15323.1682-.23961.3035-.34302-.1929-.62206-.4832-.8013-.835-.07969-.1564-.14462-.3806-.18044-.819-.03677-.4501-.03755-1.0324-.03755-1.889v-8.4c0-.85658.00078-1.43887.03755-1.88896.03582-.43842.10075-.66262.18044-.81902.19174-.37632.49771-.68229.87403-.87403.1564-.07969.3806-.14462.81902-.18044.45009-.03677 1.03238-.03755 1.88896-.03755h4.7c.5523 0 1-.44771 1-1 0-.55228-.4477-1-1-1z" fill-rule="evenodd"/><path d="m19.7071 2.70711c.3905-.39053.3905-1.02369 0-1.41422-.3905-.390521-1.0237-.390521-1.4142 0l-3 3c-.1875.18754-.2929.44189-.2929.70711s.1054.51957.2929.70711l3 3c.3905.39052 1.0237.39052 1.4142 0 .3905-.39053.3905-1.02369 0-1.41422l-1.2929-1.29289h3.5858c.5523 0 1-.44772 1-1 0-.55229-.4477-1-1-1h-3.5858z"/></g></svg>

<svg width="24" height="24" viewBox="0 0 24 24" fill="none" xmlns="http://www.w3.org/2000/svg">
<path fill-rule="evenodd" clip-rule="evenodd" d="M5.5 8.5C5.5 6.84315 6.84315 5.5 8.5 5.5C10.1569 5.5 11.5 6.84315 11.5 8.5C11.5 10.1569 10.1569 11.5 8.5 11.5C6.84315 11.5 5.5 10.1569 5.5 8.5Z" fill="#801ED7"/>
<path fill-rule="evenodd" clip-rule="evenodd" d="M12.5 2H7.7587C6.95374 1.99999 6.28937 1.99998 5.74818 2.04419C5.18608 2.09012 4.66937 2.18868 4.18404 2.43598C3.43139 2.81947 2.81947 3.43139 2.43598 4.18404C2.18868 4.66937 2.09012 5.18608 2.04419 5.74818C1.99998 6.28937 1.99999 6.95372 2 7.75869V16.2413C1.99999 17.0463 1.99998 17.7106 2.04419 18.2518C2.09012 18.8139 2.18868 19.3306 2.43598 19.816C2.81947 20.5686 3.43139 21.1805 4.18404 21.564C4.66937 21.8113 5.18608 21.9099 5.74818 21.9558C5.92356 21.9701 6.11188 21.9798 6.31374 21.9864C6.52305 22.0003 6.7734 22.0002 7.03144 22.0002C10.3543 22.0002 13.6771 22 17 22C17.0465 22 17.0924 22 17.1376 22C17.933 22.0005 18.5236 22.0008 19.0353 21.8637C20.4156 21.4938 21.4938 20.4156 21.8637 19.0353C22.039 18.381 22.0002 17.6805 22 17.0095C22.0018 16.8202 22.0001 16.6308 22.0001 16.4415C22.0006 15.9726 22.0011 15.5594 21.8923 15.1647C21.7969 14.8182 21.6399 14.4917 21.429 14.2007C21.1887 13.8692 20.8658 13.6114 20.4993 13.3189L17.6683 11.0541C17.4984 10.9182 17.3304 10.7838 17.1779 10.6797C17.0083 10.5639 16.7995 10.4436 16.5382 10.3766C16.1709 10.2824 15.7843 10.2946 15.4237 10.4118C15.1671 10.4951 14.9663 10.6283 14.8043 10.7545C14.6586 10.8681 14.4995 11.0128 14.3385 11.1592L5.83046 18.8938C5.61698 19.0878 5.41061 19.2754 5.2589 19.4395C5.19807 19.5054 5.10567 19.6077 5.01929 19.743C4.67627 19.5501 4.39723 19.2598 4.21799 18.908C4.1383 18.7516 4.07337 18.5274 4.03755 18.089C4.00078 17.6389 4 17.0566 4 16.2V7.8C4 6.94342 4.00078 6.36113 4.03755 5.91104C4.07337 5.47262 4.1383 5.24842 4.21799 5.09202C4.40973 4.7157 4.7157 4.40973 5.09202 4.21799C5.24842 4.1383 5.47262 4.07337 5.91104 4.03755C6.36113 4.00078 6.94342 4 7.8 4H12.5C13.0523 4 13.5 3.55229 13.5 3C13.5 2.44772 13.0523 2 12.5 2Z" fill="#801ED7"/>
<path d="M19.7071 2.70711C20.0976 2.31658 20.0976 1.68342 19.7071 1.29289C19.3166 0.902369 18.6834 0.902369 18.2929 1.29289L15.2929 4.29289C15.1054 4.48043 15 4.73478 15 5C15 5.26522 15.1054 5.51957 15.2929 5.70711L18.2929 8.70711C18.6834 9.09763 19.3166 9.09763 19.7071 8.70711C20.0976 8.31658 20.0976 7.68342 19.7071 7.29289L18.4142 6L22 6C22.5523 6 23 5.55228 23 5C23 4.44771 22.5523 4 22 4L18.4142 4L19.7071 2.70711Z" fill="#801ED7"/>
</svg>
